X:240
T:The Star of Munster
M:C
L:1/8
K:Ador
ed|"Am"c2 Ac "G"B2GB|"Am"AGEF "Em"GED2|"Am"EAAB cBcd|"Em"eaaf gedB|
"Am"c2 Ac "G"B2GB|"Am"AGEF "Em"GED2|"F"EAAB cded|"G"cABG "Am"A2 :|
cd|"Am" eaab ageg|ag bg agef|"G"g2 ga gedf|gfaf gfed|
"Am"eaab ageg|ag bg agef|"Em"g2ge "B7"a2 ga|"Em"b2a2 gfed :|"Am"c4"Em"B4|"Am"A6|]
